X: 28882
T: Mystery Inch, The
R: jig
M: 6/8
K: Gmajor
EBg fdB|def dBA|GAB dBG|AB GB FG|
EBg fdB|d2d dBA|GAB dgf|1 efd Bde:|2 efd BAG||
EGB AGD|BAG EGB|ABd d2d|edA BGE|
cGB AGE|dGB AGE|FGd faf|dBd eBA|
GEB cBA|GED BAG|EGB d2d|edA BGE|
cGB AGE|dGB AGE|FGd faf|dBd eBA||

